_includes/icons/ios-services.svg

<svg fill="#666" height="50" viewBox="0 0 50 50" width="50" xmlns="http://www.w3.org/2000/svg"><path d="m32.21875 2.0625-.78125.3125-2.8125 1.09375-.78125.3125.1875.8125.59375 3c-.292969.292969-.605469.636719-.9375 1l-2.96875-.65625-.8125-.1875-.3125.75-1.21875 2.8125-.3125.75.6875.46875 2.5625 1.71875c-.03125.488281-.027344.980469 0 1.46875l-2.625 1.625-.71875.4375.3125.78125 1.09375 2.8125.3125.78125.8125-.1875 3-.59375c.304688.363281.640625.691406 1 1l-.6875 3-.1875.8125.78125.34375 2.8125 1.1875.75.3125.46875-.6875 1.71875-2.5625c.488281.03125.980469.027344 1.46875 0l1.625 2.65625.4375.6875.78125-.28125 3.59375-1.4375-.1875-.8125-.6875-3.28125c.375-.316406.714844-.65625 1.03125-1.03125l3.03125.78125.84375.21875.3125-.78125 1.21875-2.8125.34375-.78125-.75-.46875-2.625-1.59375c.03125-.488281.027344-.980469 0-1.46875l2.625-1.625.71875-.4375-.3125-.78125-1.09375-2.8125-.3125-.78125-.84375.1875-3.0625.6875c-.304687-.363281-.640625-.691406-1-1l.65625-3 .1875-.8125-.75-.3125-2.8125-1.21875-.78125-.3125-.46875.71875-1.59375 2.53125c-.460937-.046875-.960937-.003906-1.46875.03125l-1.625-2.65625zm-.84375 2.46875 1.46875 2.40625.375.59375.6875-.15625c.707031-.15625 1.375-.070312 2.28125.03125l.625.0625.34375-.53125 1.4375-2.28125 1.25.53125-.625 2.6875-.15625.65625.5625.375c.613281.4375 1.125.949219 1.5625 1.5625l.375.5625.65625-.15625 2.75-.625.5 1.25-2.40625 1.4375-.53125.34375.0625.625c.09375.835938.09375 1.539063 0 2.375l-.0625.625.53125.34375 2.375 1.46875-.5 1.1875-2.78125-.6875-.6875-.15625-.375.5625c-.4375.613281-.949219 1.125-1.5625 1.5625l-.53125.375.125.65625.625 2.96875-1.25.46875-1.4375-2.375-.34375-.53125-.625.0625c-.835937.09375-1.539062.09375-2.375 0l-.625-.0625-.3125.5-1.53125 2.3125-1.28125-.5625.59375-2.6875.15625-.625-.53125-.40625c-.613281-.4375-1.125-.949219-1.5625-1.5625l-.375-.53125-.65625.125-2.6875.5625-.46875-1.25 2.375-1.46875.5625-.34375-.09375-.625c-.09375-.835937-.09375-1.539062 0-2.375l.09375-.59375-.53125-.34375-2.3125-1.53125.53125-1.28125 2.71875.625.59375.125.375-.46875c.570313-.664062 1.15625-1.25 1.65625-1.75l.375-.375-.09375-.5-.5625-2.6875zm3.625 5.46875c-2.75 0-5 2.25-5 5s2.25 5 5 5 5-2.25 5-5-2.25-5-5-5zm0 2c1.667969 0 3 1.332031 3 3s-1.332031 3-3 3-3-1.332031-3-3 1.332031-3 3-3zm-21.46875 8-.125.84375-.5 3.25c-.542969.171875-1.066406.421875-1.5625.6875l-3.4375-2.5-3.5 3.5.46875.6875 1.90625 2.75c-.269531.535156-.507812 1.070313-.6875 1.59375l-3.28125.59375-.8125.15625v4.875l.8125.15625 3.28125.59375c.175781.546875.417969 1.058594.6875 1.5625l-1.96875 2.65625-.53125.6875 3.5 3.5.6875-.46875 2.75-1.90625c.535156.269531 1.070313.507813 1.59375.6875l.5 3.25.125.84375h4.90625l.125-.8125.625-3.28125c.542969-.171875 1.066406-.421875 1.5625-.6875l3.4375 2.5 3.5-3.5-.46875-.6875-2-2.78125c.261719-.527344.511719-1.046875.6875-1.5625l3.375-.59375.8125-.15625v-4.90625l-4.21875-.625c-.171875-.539062-.390625-1.066406-.65625-1.5625l2-2.75.46875-.6875-.5625-.59375-2.3125-2.40625-.59375-.625-.71875.5-2.75 2c-.527344-.261719-1.046875-.511719-1.5625-.6875l-.5-3.25-.125-.84375zm1.71875 2h1.5l.5625 3.5625.5625.1875c.898438.300781 1.738281.582031 2.40625 1l.5625.34375.53125-.375 2.5-1.8125 1.125 1.1875-1.8125 2.53125-.40625.53125.375.5625c.449219.71875.800781 1.550781.96875 2.3125l.15625.65625.65625.09375 3.0625.46875v1.53125l-3.0625.53125-.59375.09375-.1875.5625c-.300781.898438-.582031 1.738281-1 2.40625l-.375.5625.40625.53125 1.8125 2.53125-1.125 1.09375-2.5-1.8125-.53125-.375-.5625.34375c-.71875.449219-1.550781.800781-2.3125.96875l-.625.15625-.125.65625-.53125 2.96875h-1.53125l-.5625-3.5625-.5625-.1875c-.898437-.300781-1.738281-.582031-2.40625-1l-.5625-.34375-.53125.375-2.53125 1.71875-1.09375-1.09375 1.78125-2.40625.4375-.5625-.375-.5625c-.449219-.71875-.800781-1.519531-.96875-2.28125l-.15625-.65625-.65625-.125-2.96875-.53125v-1.5625l2.96875-.53125.59375-.125.1875-.53125c.300781-.898437.582031-1.738281 1-2.40625l.34375-.5625-.375-.53125-1.71875-2.53125 1.125-1.09375 2.5 1.8125.53125.375.5625-.34375c.71875-.449219 1.550781-.800781 2.3125-.96875l.65625-.15625.09375-.65625zm.75 7c-2.746094 0-5 2.253906-5 5s2.253906 5 5 5 5-2.253906 5-5-2.253906-5-5-5zm0 2c1.65625 0 3 1.34375 3 3s-1.34375 3-3 3-3-1.34375-3-3 1.34375-3 3-3z"/></svg>

<svg xmlns="http://www.w3.org/2000/svg" viewBox="0 0 50 50" width="50" height="50" fill="#666"><path d="M 32.21875 2.0625 L 31.4375 2.375 L 28.625 3.46875 L 27.84375 3.78125 L 28.03125 4.59375 L 28.625 7.59375 C 28.332031 7.886719 28.019531 8.230469 27.6875 8.59375 L 24.71875 7.9375 L 23.90625 7.75 L 23.59375 8.5 L 22.375 11.3125 L 22.0625 12.0625 L 22.75 12.53125 L 25.3125 14.25 C 25.28125 14.738281 25.285156 15.230469 25.3125 15.71875 L 22.6875 17.34375 L 21.96875 17.78125 L 22.28125 18.5625 L 23.375 21.375 L 23.6875 22.15625 L 24.5 21.96875 L 27.5 21.375 C 27.804688 21.738281 28.140625 22.066406 28.5 22.375 L 27.8125 25.375 L 27.625 26.1875 L 28.40625 26.53125 L 31.21875 27.71875 L 31.96875 28.03125 L 32.4375 27.34375 L 34.15625 24.78125 C 34.644531 24.8125 35.136719 24.808594 35.625 24.78125 L 37.25 27.4375 L 37.6875 28.125 L 38.46875 27.84375 L 42.0625 26.40625 L 41.875 25.59375 L 41.1875 22.3125 C 41.5625 21.996094 41.902344 21.65625 42.21875 21.28125 L 45.25 22.0625 L 46.09375 22.28125 L 46.40625 21.5 L 47.625 18.6875 L 47.96875 17.90625 L 47.21875 17.4375 L 44.59375 15.84375 C 44.625 15.355469 44.621094 14.863281 44.59375 14.375 L 47.21875 12.75 L 47.9375 12.3125 L 47.625 11.53125 L 46.53125 8.71875 L 46.21875 7.9375 L 45.375 8.125 L 42.3125 8.8125 C 42.007813 8.449219 41.671875 8.121094 41.3125 7.8125 L 41.96875 4.8125 L 42.15625 4 L 41.40625 3.6875 L 38.59375 2.46875 L 37.8125 2.15625 L 37.34375 2.875 L 35.75 5.40625 C 35.289063 5.359375 34.789063 5.402344 34.28125 5.4375 L 32.65625 2.78125 Z M 31.375 4.53125 L 32.84375 6.9375 L 33.21875 7.53125 L 33.90625 7.375 C 34.613281 7.21875 35.28125 7.304688 36.1875 7.40625 L 36.8125 7.46875 L 37.15625 6.9375 L 38.59375 4.65625 L 39.84375 5.1875 L 39.21875 7.875 L 39.0625 8.53125 L 39.625 8.90625 C 40.238281 9.34375 40.75 9.855469 41.1875 10.46875 L 41.5625 11.03125 L 42.21875 10.875 L 44.96875 10.25 L 45.46875 11.5 L 43.0625 12.9375 L 42.53125 13.28125 L 42.59375 13.90625 C 42.6875 14.742188 42.6875 15.445313 42.59375 16.28125 L 42.53125 16.90625 L 43.0625 17.25 L 45.4375 18.71875 L 44.9375 19.90625 L 42.15625 19.21875 L 41.46875 19.0625 L 41.09375 19.625 C 40.65625 20.238281 40.144531 20.75 39.53125 21.1875 L 39 21.5625 L 39.125 22.21875 L 39.75 25.1875 L 38.5 25.65625 L 37.0625 23.28125 L 36.71875 22.75 L 36.09375 22.8125 C 35.257813 22.90625 34.554688 22.90625 33.71875 22.8125 L 33.09375 22.75 L 32.78125 23.25 L 31.25 25.5625 L 29.96875 25 L 30.5625 22.3125 L 30.71875 21.6875 L 30.1875 21.28125 C 29.574219 20.84375 29.0625 20.332031 28.625 19.71875 L 28.25 19.1875 L 27.59375 19.3125 L 24.90625 19.875 L 24.4375 18.625 L 26.8125 17.15625 L 27.375 16.8125 L 27.28125 16.1875 C 27.1875 15.351563 27.1875 14.648438 27.28125 13.8125 L 27.375 13.21875 L 26.84375 12.875 L 24.53125 11.34375 L 25.0625 10.0625 L 27.78125 10.6875 L 28.375 10.8125 L 28.75 10.34375 C 29.320313 9.679688 29.90625 9.09375 30.40625 8.59375 L 30.78125 8.21875 L 30.6875 7.71875 L 30.125 5.03125 Z M 35 10 C 32.25 10 30 12.25 30 15 C 30 17.75 32.25 20 35 20 C 37.75 20 40 17.75 40 15 C 40 12.25 37.75 10 35 10 Z M 35 12 C 36.667969 12 38 13.332031 38 15 C 38 16.667969 36.667969 18 35 18 C 33.332031 18 32 16.667969 32 15 C 32 13.332031 33.332031 12 35 12 Z M 13.53125 20 L 13.40625 20.84375 L 12.90625 24.09375 C 12.363281 24.265625 11.839844 24.515625 11.34375 24.78125 L 7.90625 22.28125 L 4.40625 25.78125 L 4.875 26.46875 L 6.78125 29.21875 C 6.511719 29.753906 6.273438 30.289063 6.09375 30.8125 L 2.8125 31.40625 L 2 31.5625 L 2 36.4375 L 2.8125 36.59375 L 6.09375 37.1875 C 6.269531 37.734375 6.511719 38.246094 6.78125 38.75 L 4.8125 41.40625 L 4.28125 42.09375 L 7.78125 45.59375 L 8.46875 45.125 L 11.21875 43.21875 C 11.753906 43.488281 12.289063 43.726563 12.8125 43.90625 L 13.3125 47.15625 L 13.4375 48 L 18.34375 48 L 18.46875 47.1875 L 19.09375 43.90625 C 19.636719 43.734375 20.160156 43.484375 20.65625 43.21875 L 24.09375 45.71875 L 27.59375 42.21875 L 27.125 41.53125 L 25.125 38.75 C 25.386719 38.222656 25.636719 37.703125 25.8125 37.1875 L 29.1875 36.59375 L 30 36.4375 L 30 31.53125 L 25.78125 30.90625 C 25.609375 30.367188 25.390625 29.839844 25.125 29.34375 L 27.125 26.59375 L 27.59375 25.90625 L 27.03125 25.3125 L 24.71875 22.90625 L 24.125 22.28125 L 23.40625 22.78125 L 20.65625 24.78125 C 20.128906 24.519531 19.609375 24.269531 19.09375 24.09375 L 18.59375 20.84375 L 18.46875 20 Z M 15.25 22 L 16.75 22 L 17.3125 25.5625 L 17.875 25.75 C 18.773438 26.050781 19.613281 26.332031 20.28125 26.75 L 20.84375 27.09375 L 21.375 26.71875 L 23.875 24.90625 L 25 26.09375 L 23.1875 28.625 L 22.78125 29.15625 L 23.15625 29.71875 C 23.605469 30.4375 23.957031 31.269531 24.125 32.03125 L 24.28125 32.6875 L 24.9375 32.78125 L 28 33.25 L 28 34.78125 L 24.9375 35.3125 L 24.34375 35.40625 L 24.15625 35.96875 C 23.855469 36.867188 23.574219 37.707031 23.15625 38.375 L 22.78125 38.9375 L 23.1875 39.46875 L 25 42 L 23.875 43.09375 L 21.375 41.28125 L 20.84375 40.90625 L 20.28125 41.25 C 19.5625 41.699219 18.730469 42.050781 17.96875 42.21875 L 17.34375 42.375 L 17.21875 43.03125 L 16.6875 46 L 15.15625 46 L 14.59375 42.4375 L 14.03125 42.25 C 13.132813 41.949219 12.292969 41.667969 11.625 41.25 L 11.0625 40.90625 L 10.53125 41.28125 L 8 43 L 6.90625 41.90625 L 8.6875 39.5 L 9.125 38.9375 L 8.75 38.375 C 8.300781 37.65625 7.949219 36.855469 7.78125 36.09375 L 7.625 35.4375 L 6.96875 35.3125 L 4 34.78125 L 4 33.21875 L 6.96875 32.6875 L 7.5625 32.5625 L 7.75 32.03125 C 8.050781 31.132813 8.332031 30.292969 8.75 29.625 L 9.09375 29.0625 L 8.71875 28.53125 L 7 26 L 8.125 24.90625 L 10.625 26.71875 L 11.15625 27.09375 L 11.71875 26.75 C 12.4375 26.300781 13.269531 25.949219 14.03125 25.78125 L 14.6875 25.625 L 14.78125 24.96875 Z M 16 29 C 13.253906 29 11 31.253906 11 34 C 11 36.746094 13.253906 39 16 39 C 18.746094 39 21 36.746094 21 34 C 21 31.253906 18.746094 29 16 29 Z M 16 31 C 17.65625 31 19 32.34375 19 34 C 19 35.65625 17.65625 37 16 37 C 14.34375 37 13 35.65625 13 34 C 13 32.34375 14.34375 31 16 31 Z"/></svg>
